assets/Church/Flat/church_flat.svg

<svg width="32" height="32" viewBox="0 0 32 32" fill="none" xmlns="http://www.w3.org/2000/svg">
<path d="M20.824 18H22.03V11.53L16.02 7L10.03 11.53V18H11.224L4.03003 22.5V29H28.03V22.5L20.824 18Z" fill="#FFCE7C"/>
<path d="M18.03 22C18.03 20.9 17.13 20 16.03 20C14.93 20 14.03 20.9 14.03 22V28H18.03V22Z" fill="#321B41"/>
<path d="M14.45 16C14.22 16 14.03 15.81 14.03 15.58V13C14.03 11.9 14.93 11 16.03 11C17.13 11 18.03 11.9 18.03 13V15.58C18.03 15.81 17.84 16 17.61 16H14.45ZM12.03 24.57C12.03 23.7 11.33 23 10.46 23C9.59001 23 8.89001 23.7 8.89001 24.57V28H12.02V24.57H12.03ZM21.59 23C22.46 23 23.17 23.71 23.17 24.58V28H20.01V24.58C20.01 23.71 20.72 23 21.59 23Z" fill="#00A6ED"/>
<path d="M16.52 3H17.02C17.29 3 17.52 3.23 17.52 3.5C17.52 3.78 17.3 4 17.02 4H16.52V6.08174C16.66 6.13023 16.7948 6.19967 16.92 6.29006L22.81 10.4901C23.03 10.6501 23.16 10.9001 23.16 11.1701C23.16 11.8501 22.4 12.2401 21.85 11.8501L16.8 8.24006C16.34 7.91006 15.72 7.91006 15.26 8.24006L10.21 11.8501C9.65999 12.2401 8.9 11.8501 8.88 11.1701C8.88 10.9001 9.01 10.6501 9.23 10.4901L15.12 6.29006C15.2452 6.19966 15.38 6.13022 15.52 6.08173V4H15.02C14.74 4 14.52 3.78 14.52 3.5C14.52 3.22 14.74 3 15.02 3H15.52V2.5C15.52 2.22 15.74 2 16.02 2C16.3 2 16.52 2.22 16.52 2.5V3ZM30.03 29.99H2V29.33C2 28.59 2.6 27.99 3.34 27.99H28.69C29.43 27.99 30.03 28.59 30.03 29.33V29.99ZM2.41002 22.41C2.17002 22.5601 2.03001 22.8101 2.03001 23.09H2.02002V23.2C2.02002 23.83 2.72002 24.22 3.25002 23.88L14.38 16.85C15.71 16.06 16.26 16.05 17.69 16.85L28.8 23.77C29.34 24.11 30.03 23.7201 30.03 23.09C30.03 22.8101 29.88 22.5601 29.65 22.41L17.42 14.76C16.58 14.23 15.51 14.23 14.66 14.76L2.41002 22.41Z" fill="#8C5543"/>
</svg>

<svg xmlns="http://www.w3.org/2000/svg" width="32" height="32" fill="none"><path fill="#FFCE7C" d="M20.824 18h1.206v-6.47L16.02 7l-5.99 4.53V18h1.194L4.03 22.5V29h24v-6.5L20.824 18Z"/><path fill="#321B41" d="M18.03 22c0-1.1-.9-2-2-2s-2 .9-2 2v6h4v-6Z"/><path fill="#00A6ED" d="M14.45 16c-.23 0-.42-.19-.42-.42V13c0-1.1.9-2 2-2s2 .9 2 2v2.58c0 .23-.19.42-.42.42h-3.16Zm-2.42 8.57c0-.87-.7-1.57-1.57-1.57-.87 0-1.57.7-1.57 1.57V28h3.13v-3.43h.01ZM21.59 23c.87 0 1.58.71 1.58 1.58V28h-3.16v-3.42c0-.87.71-1.58 1.58-1.58Z"/><path fill="#8C5543" d="M16.52 3h.5c.27 0 .5.23.5.5 0 .28-.22.5-.5.5h-.5v2.082c.14.048.275.118.4.208l5.89 4.2c.22.16.35.41.35.68a.83.83 0 0 1-1.31.68L16.8 8.24c-.46-.33-1.08-.33-1.54 0l-5.05 3.61c-.55.39-1.31 0-1.33-.68 0-.27.13-.52.35-.68l5.89-4.2c.125-.09.26-.16.4-.208V4h-.5c-.28 0-.5-.22-.5-.5s.22-.5.5-.5h.5v-.5c0-.28.22-.5.5-.5s.5.22.5.5V3Zm13.51 26.99H2v-.66c0-.74.6-1.34 1.34-1.34h25.35c.74 0 1.34.6 1.34 1.34v.66ZM2.41 22.41c-.24.15-.38.4-.38.68h-.01v.11c0 .63.7 1.02 1.23.68l11.13-7.03c1.33-.79 1.88-.8 3.31 0l11.11 6.92a.801.801 0 1 0 .85-1.36l-12.23-7.65c-.84-.53-1.91-.53-2.76 0L2.41 22.41Z"/></svg>
